dist/img/svg/hero/Akra.svg

<svg width="567" height="140" viewBox="0 0 567 140" fill="none" xmlns="http://www.w3.org/2000/svg">
<path d="M56 0.199988V-0.800012H55.3233L55.0717 -0.171861L56 0.199988ZM90.8 0.199988L91.7288 -0.170715L91.4776 -0.800012H90.8V0.199988ZM146.6 140V141H148.076L147.529 139.629L146.6 140ZM110.4 140L109.468 140.362L109.716 141H110.4V140ZM99.2 111.2L100.132 110.838L99.8841 110.2H99.2V111.2ZM47.6 111.2V110.2H46.9159L46.668 110.838L47.6 111.2ZM36.4 140V141H37.0841L37.332 140.362L36.4 140ZM0 140L-0.928293 139.628L-1.47782 141H0V140ZM90.4 84V85H91.8251L91.3404 83.6599L90.4 84ZM73.4 37L74.3404 36.6599L73.4055 34.0752L72.4609 36.6563L73.4 37ZM56.2 84L55.2609 83.6563L54.7692 85H56.2V84ZM56 1.19999H90.8V-0.800012H56V1.19999ZM89.8713 0.570691L145.671 140.371L147.529 139.629L91.7288 -0.170715L89.8713 0.570691ZM146.6 139H110.4V141H146.6V139ZM111.332 139.638L100.132 110.838L98.268 111.562L109.468 140.362L111.332 139.638ZM99.2 110.2H47.6V112.2H99.2V110.2ZM46.668 110.838L35.468 139.638L37.332 140.362L48.532 111.562L46.668 110.838ZM36.4 139H0V141H36.4V139ZM0.928294 140.372L56.9283 0.571836L55.0717 -0.171861L-0.928293 139.628L0.928294 140.372ZM91.3404 83.6599L74.3404 36.6599L72.4596 37.3401L89.4596 84.3401L91.3404 83.6599ZM72.4609 36.6563L55.2609 83.6563L57.1391 84.3437L74.3391 37.3437L72.4609 36.6563ZM56.2 85H90.4V83H56.2V85ZM160.641 0.199988V-0.800012H159.641V0.199988H160.641ZM196.041 0.199988H197.041V-0.800012H196.041V0.199988ZM196.041 58.2H195.041V60.9679L196.81 58.8391L196.041 58.2ZM244.241 0.199988V-0.800012H243.771L243.472 -0.439152L244.241 0.199988ZM286.241 0.199988L287.009 0.839727L288.374 -0.800012H286.241V0.199988ZM229.641 68.2L228.872 67.5603L228.337 68.2034L228.875 68.8437L229.641 68.2ZM290.041 140V141H292.189L290.806 139.356L290.041 140ZM248.041 140L247.275 140.644L247.575 141H248.041V140ZM196.041 78.2L196.806 77.5562L195.041 75.4583V78.2H196.041ZM196.041 140V141H197.041V140H196.041ZM160.641 140H159.641V141H160.641V140ZM160.641 1.19999H196.041V-0.800012H160.641V1.19999ZM195.041 0.199988V58.2H197.041V0.199988H195.041ZM196.81 58.8391L245.01 0.839128L243.472 -0.439152L195.272 57.5609L196.81 58.8391ZM244.241 1.19999H286.241V-0.800012H244.241V1.19999ZM285.472 -0.439752L228.872 67.5603L230.409 68.8397L287.009 0.839727L285.472 -0.439752ZM228.875 68.8437L289.275 140.644L290.806 139.356L230.406 67.5563L228.875 68.8437ZM290.041 139H248.041V141H290.041V139ZM248.806 139.356L196.806 77.5562L195.275 78.8438L247.275 140.644L248.806 139.356ZM195.041 78.2V140H197.041V78.2H195.041ZM196.041 139H160.641V141H196.041V139ZM161.641 140V0.199988H159.641V140H161.641ZM304 0.199988V-0.800012H303V0.199988H304ZM405.2 12.6L404.532 13.3438L404.537 13.3486L405.2 12.6ZM412.4 74.8L411.549 74.2742L412.4 74.8ZM393.2 91.2L392.801 90.2832L391.828 90.7069L392.309 91.653L393.2 91.2ZM418 140V141H419.63L418.891 139.547L418 140ZM381.6 140L380.708 140.452L380.986 141H381.6V140ZM359.4 96.2L360.292 95.7479L360.014 95.2H359.4V96.2ZM339.4 96.2V95.2H338.4V96.2H339.4ZM339.4 140V141H340.4V140H339.4ZM304 140H303V141H304V140ZM377 62.4L377.568 63.2232L377.577 63.2167L377.587 63.2099L377 62.4ZM377 34L376.419 34.8137L376.435 34.8254L376.452 34.8365L377 34ZM339.4 30V29H338.4V30H339.4ZM339.4 66.4H338.4V67.4H339.4V66.4ZM304 1.19999H366.8V-0.800012H304V1.19999ZM366.8 1.19999C383.035 1.19999 395.568 5.28969 404.532 13.3438L405.868 11.8562C396.432 3.37696 383.365 -0.800012 366.8 -0.800012V1.19999ZM404.537 13.3486C413.606 21.3812 418.2 32.9452 418.2 48.2H420.2C420.2 32.5214 415.461 20.3521 405.863 11.8514L404.537 13.3486ZM418.2 48.2C418.2 58.4528 415.967 67.1287 411.549 74.2742L413.251 75.3258C417.9 67.8046 420.2 58.7472 420.2 48.2H418.2ZM411.549 74.2742C407.128 81.426 400.89 86.7605 392.801 90.2832L393.599 92.1168C402.044 88.4395 408.605 82.8406 413.251 75.3258L411.549 74.2742ZM392.309 91.653L417.109 140.453L418.891 139.547L394.091 90.7469L392.309 91.653ZM418 139H381.6V141H418V139ZM382.492 139.548L360.292 95.7479L358.508 96.6521L380.708 140.452L382.492 139.548ZM359.4 95.2H339.4V97.2H359.4V95.2ZM338.4 96.2V140H340.4V96.2H338.4ZM339.4 139H304V141H339.4V139ZM305 140V0.199988H303V140H305ZM360.6 67.4C367.773 67.4 373.469 66.0496 377.568 63.2232L376.432 61.5768C372.797 64.0837 367.56 65.4 360.6 65.4V67.4ZM377.587 63.2099C381.807 60.1541 383.8 55.0509 383.8 48.2H381.8C381.8 54.6824 379.927 59.0459 376.413 61.5901L377.587 63.2099ZM383.8 48.2C383.8 41.1085 381.819 35.962 377.548 33.1635L376.452 34.8365C379.914 37.1047 381.8 41.4248 381.8 48.2H383.8ZM377.581 33.1863C373.607 30.3472 367.898 29 360.6 29V31C367.702 31 372.927 32.3195 376.419 34.8137L377.581 33.1863ZM360.6 29H339.4V31H360.6V29ZM338.4 30V66.4H340.4V30H338.4ZM339.4 67.4H360.6V65.4H339.4V67.4ZM476.312 0.199988V-0.800012H475.636L475.384 -0.171861L476.312 0.199988ZM511.112 0.199988L512.041 -0.170715L511.79 -0.800012H511.112V0.199988ZM566.912 140V141H568.388L567.841 139.629L566.912 140ZM530.713 140L529.781 140.362L530.028 141H530.713V140ZM519.513 111.2L520.445 110.838L520.197 110.2H519.513V111.2ZM467.913 111.2V110.2H467.228L466.98 110.838L467.913 111.2ZM456.712 140V141H457.397L457.645 140.362L456.712 140ZM420.312 140L419.384 139.628L418.835 141H420.312V140ZM510.713 84V85H512.138L511.653 83.6599L510.713 84ZM493.712 37L494.653 36.6599L493.718 34.0752L492.773 36.6563L493.712 37ZM476.513 84L475.573 83.6563L475.082 85H476.513V84ZM476.312 1.19999H511.112V-0.800012H476.312V1.19999ZM510.184 0.570691L565.984 140.371L567.841 139.629L512.041 -0.170715L510.184 0.570691ZM566.912 139H530.713V141H566.912V139ZM531.645 139.638L520.445 110.838L518.581 111.562L529.781 140.362L531.645 139.638ZM519.513 110.2H467.913V112.2H519.513V110.2ZM466.98 110.838L455.78 139.638L457.645 140.362L468.845 111.562L466.98 110.838ZM456.712 139H420.312V141H456.712V139ZM421.241 140.372L477.241 0.571836L475.384 -0.171861L419.384 139.628L421.241 140.372ZM511.653 83.6599L494.653 36.6599L492.772 37.3401L509.772 84.3401L511.653 83.6599ZM492.773 36.6563L475.573 83.6563L477.452 84.3437L494.652 37.3437L492.773 36.6563ZM476.513 85H510.713V83H476.513V85Z" fill="url(#paint0_linear_21_13)"/>
<defs>
<linearGradient id="paint0_linear_21_13" x1="179.171" y1="-2.99999" x2="182.326" y2="100.078" gradientUnits="userSpaceOnUse">
<stop stop-color="#F4F6F8"/>
<stop offset="1" stop-color="#F4F6F8" stop-opacity="0"/>
</linearGradient>
</defs>
</svg>

<svg width="567" height="140" viewBox="0 0 567 140" fill="none" xmlns="http://www.w3.org/2000/svg"><path d="M56 .2v-1h-.677l-.251.628L56 .2zm34.8 0l.929-.37-.251-.63H90.8v1zM146.6 140v1h1.476l-.547-1.371-.929.371zm-36.2 0l-.932.362.248.638h.684v-1zm-11.2-28.8l.932-.362-.248-.638H99.2v1zm-51.6 0v-1h-.684l-.248.638.932.362zM36.4 140v1h.684l.248-.638L36.4 140zM0 140l-.928-.372-.55 1.372H0v-1zm90.4-56v1h1.425l-.485-1.34-.94.34zm-17-47l.94-.34-.934-2.585-.945 2.581.939.344zM56.2 84l-.94-.344L54.77 85h1.43v-1zM56 1.2h34.8v-2H56v2zM89.871.57l55.8 139.801 1.858-.742-55.8-139.8-1.858.742zM146.6 139h-36.2v2h36.2v-2zm-35.268.638l-11.2-28.8-1.864.724 11.2 28.8 1.864-.724zM99.2 110.2H47.6v2h51.6v-2zm-52.532.638l-11.2 28.8 1.864.724 11.2-28.8-1.864-.724zM36.4 139H0v2h36.4v-2zM.928 140.372l56-139.8-1.856-.744-56 139.8 1.856.744zM91.34 83.66l-17-47-1.88.68 17 47 1.88-.68zM72.46 36.656l-17.2 47 1.88.688 17.2-47-1.88-.688zM56.2 85h34.2v-2H56.2v2zM160.641.2v-1h-1v1h1zm35.4 0h1v-1h-1v1zm0 58h-1v2.768l1.769-2.129-.769-.639zm48.2-58v-1h-.47l-.299.36.769.64zm42 0l.768.64 1.365-1.64h-2.133v1zm-56.6 68l-.769-.64-.535.643.538.64.766-.643zm60.4 71.8v1h2.148l-1.383-1.644-.765.644zm-42 0l-.766.644.3.356h.466v-1zm-52-61.8l.765-.644-1.765-2.098V78.2h1zm0 61.8v1h1v-1h-1zm-35.4 0h-1v1h1v-1zm0-138.8h35.4v-2h-35.4v2zm34.4-1v58h2V.2h-2zm1.769 58.64l48.2-58-1.538-1.28-48.2 58 1.538 1.28zM244.241 1.2h42v-2h-42v2zm41.231-1.64l-56.6 68 1.537 1.28 56.6-68-1.537-1.28zm-56.597 69.284l60.4 71.8 1.531-1.288-60.4-71.8-1.531 1.288zM290.041 139h-42v2h42v-2zm-41.235.356l-52-61.8-1.531 1.288 52 61.8 1.531-1.288zM195.041 78.2V140h2V78.2h-2zm1 60.8h-35.4v2h35.4v-2zm-34.4 1V.2h-2V140h2zM304 .2v-1h-1v1h1zm101.2 12.4l-.668.744.005.005.663-.749zm7.2 62.2l-.851-.526.851.526zm-19.2 16.4l-.399-.917-.973.424.481.946.891-.453zM418 140v1h1.63l-.739-1.453L418 140zm-36.4 0l-.892.452.278.548h.614v-1zm-22.2-43.8l.892-.452-.278-.548h-.614v1zm-20 0v-1h-1v1h1zm0 43.8v1h1v-1h-1zm-35.4 0h-1v1h1v-1zm73-77.6l.568.823.009-.006.01-.007-.587-.81zm0-28.4l-.581.814.016.011.017.011L377 34zm-37.6-4v-1h-1v1h1zm0 36.4h-1v1h1v-1zM304 1.2h62.8v-2H304v2zm62.8 0c16.235 0 28.768 4.09 37.732 12.144l1.336-1.488C396.432 3.377 383.365-.8 366.8-.8v2zm37.737 12.149C413.606 21.38 418.2 32.945 418.2 48.2h2c0-15.679-4.739-27.848-14.337-36.349l-1.326 1.498zM418.2 48.2c0 10.253-2.233 18.929-6.651 26.074l1.702 1.052C417.9 67.805 420.2 58.747 420.2 48.2h-2zm-6.651 26.074c-4.421 7.152-10.659 12.486-18.748 16.01l.798 1.833c8.445-3.678 15.006-9.276 19.652-16.791l-1.702-1.052zm-19.24 17.379l24.8 48.8 1.782-.906-24.8-48.8-1.782.906zM418 139h-36.4v2H418v-2zm-35.508.548l-22.2-43.8-1.784.904 22.2 43.8 1.784-.904zM359.4 95.2h-20v2h20v-2zm-21 1V140h2V96.2h-2zm1 42.8H304v2h35.4v-2zm-34.4 1V.2h-2V140h2zm55.6-72.6c7.173 0 12.869-1.35 16.968-4.177l-1.136-1.646c-3.635 2.507-8.872 3.823-15.832 3.823v2zm16.987-4.19c4.22-3.056 6.213-8.16 6.213-15.01h-2c0 6.482-1.873 10.846-5.387 13.39l1.174 1.62zM383.8 48.2c0-7.092-1.981-12.238-6.252-15.037l-1.096 1.674c3.462 2.268 5.348 6.588 5.348 13.363h2zm-6.219-15.014C373.607 30.347 367.898 29 360.6 29v2c7.102 0 12.327 1.32 15.819 3.814l1.162-1.628zM360.6 29h-21.2v2h21.2v-2zm-22.2 1v36.4h2V30h-2zm1 37.4h21.2v-2h-21.2v2zM476.312.2v-1h-.676l-.252.628.928.372zm34.8 0l.929-.37-.251-.63h-.678v1zm55.8 139.8v1h1.476l-.547-1.371-.929.371zm-36.199 0l-.932.362.247.638h.685v-1zm-11.2-28.8l.932-.362-.248-.638h-.684v1zm-51.6 0v-1h-.685l-.248.638.933.362zM456.712 140v1h.685l.248-.638-.933-.362zm-36.4 0l-.928-.372-.549 1.372h1.477v-1zm90.401-56v1h1.425l-.485-1.34-.94.34zm-17.001-47l.941-.34-.935-2.585-.945 2.581.939.344zm-17.199 47l-.94-.344-.491 1.344h1.431v-1zm-.201-82.8h34.8v-2h-34.8v2zm33.872-.63l55.8 139.801 1.857-.742-55.8-139.8-1.857.742zM566.912 139h-36.199v2h36.199v-2zm-35.267.638l-11.2-28.8-1.864.724 11.2 28.8 1.864-.724zM519.513 110.2h-51.6v2h51.6v-2zm-52.533.638l-11.2 28.8 1.865.724 11.2-28.8-1.865-.724zM456.712 139h-36.4v2h36.4v-2zm-35.471 1.372l56-139.8-1.857-.744-56 139.8 1.857.744zm90.412-56.712l-17-47-1.881.68 17 47 1.881-.68zm-18.88-47.004l-17.2 47 1.879.688 17.2-47-1.879-.688zM476.513 85h34.2v-2h-34.2v2z" fill="url(#paint0_linear_21_13)"/><defs><linearGradient id="paint0_linear_21_13" x1="179.171" y1="-3" x2="182.326" y2="100.078" gradientUnits="userSpaceOnUse"><stop stop-color="#F4F6F8"/><stop offset="1" stop-color="#F4F6F8" stop-opacity="0"/></linearGradient></defs></svg>
